X:526
T:Winster Gallop
S:Claire McLaughlin, Edinburgh 9/4/03
Z:Nigel Gatherer
M:2/4
L:1/8
K:G
GB GB | GB d2 | AB/c/ BA  | GB d2   |
ce ge | dB d2 | Ab/c/ BA  | G2 G2  :|
gf ed | gf ed | gf    ed  | cB A2   |
fe d2 | fe d2 | d2    A>c | BG G2 :|]
<end>
<start>
